Numix/16/status/indicator-keyboard-Ru-9.svg

<?xml version="1.0" encoding="UTF-8" standalone="no"?>
<svg
   xmlns:dc="http://purl.org/dc/elements/1.1/"
   xmlns:cc="http://creativecommons.org/ns#"
   xmlns:rdf="http://www.w3.org/1999/02/22-rdf-syntax-ns#"
   xmlns:svg="http://www.w3.org/2000/svg"
   xmlns="http://www.w3.org/2000/svg"
   xmlns:sodipodi="http://sodipodi.sourceforge.net/DTD/sodipodi-0.dtd"
   xmlns:inkscape="http://www.inkscape.org/namespaces/inkscape"
   viewBox="0 0 16 16"
   id="svg2"
   version="1.1"
   inkscape:version="0.91 r13725"
   sodipodi:docname="indicator-keyboard-Ru-9.svg">
  <metadata
     id="metadata14">
    <rdf:RDF>
      <cc:Work
         rdf:about="">
        <dc:format>image/svg+xml</dc:format>
        <dc:type
           rdf:resource="http://purl.org/dc/dcmitype/StillImage" />
      </cc:Work>
    </rdf:RDF>
  </metadata>
  <defs
     id="defs12" />
  <sodipodi:namedview
     pagecolor="#ffffff"
     bordercolor="#666666"
     borderopacity="1"
     objecttolerance="10"
     gridtolerance="10"
     guidetolerance="10"
     inkscape:pageopacity="0"
     inkscape:pageshadow="2"
     inkscape:window-width="459"
     inkscape:window-height="369"
     id="namedview10"
     showgrid="false"
     inkscape:zoom="14.75"
     inkscape:cx="8"
     inkscape:cy="8"
     inkscape:window-x="65"
     inkscape:window-y="24"
     inkscape:window-maximized="0"
     inkscape:current-layer="svg2" />
  <path
     style="fill:#ececec;fill-opacity:1"
     d="M 1.5996094 0 C 0.71320937 2.9605947e-16 0 0.71320937 0 1.5996094 L 0 14.400391 C 2.9605947e-16 15.286791 0.71320937 16 1.5996094 16 L 14.400391 16 C 15.286791 16 16 15.286791 16 14.400391 L 16 1.5996094 C 16 0.71320937 15.286791 0 14.400391 0 L 1.5996094 0 z M 3.203125 4.8046875 C 4.061125 4.8046875 4.7066719 4.9670156 5.1386719 5.2910156 C 5.5766719 5.6150156 5.7949219 6.0944688 5.7949219 6.7304688 C 5.7949219 7.1984687 5.6717812 7.5678906 5.4257812 7.8378906 C 5.1797813 8.1078906 4.855125 8.3038281 4.453125 8.4238281 C 4.549125 8.5438281 4.6722656 8.7042031 4.8222656 8.9082031 C 4.9782656 9.1122031 5.1368281 9.3379844 5.2988281 9.5839844 C 5.4608281 9.8239844 5.6213437 10.075844 5.7773438 10.339844 C 5.9333438 10.603844 6.063875 10.855703 6.171875 11.095703 L 5.515625 11.095703 C 5.389625 10.855703 5.2515625 10.616953 5.1015625 10.376953 C 4.9575625 10.136953 4.8083437 9.9055939 4.6523438 9.6835938 C 4.5023437 9.4555937 4.3549375 9.2447344 4.2109375 9.0527344 L 3.8320312 8.5488281 C 3.6400312 8.5668281 3.4478594 8.5761719 3.2558594 8.5761719 L 2.2480469 8.5761719 L 2.2480469 11.095703 L 1.6367188 11.095703 L 1.6367188 4.9765625 C 1.8527188 4.9165625 2.1045781 4.8736094 2.3925781 4.8496094 C 2.6865781 4.8196094 2.957125 4.8046875 3.203125 4.8046875 z M 3.2753906 5.3359375 C 3.0473906 5.3359375 2.845875 5.3452813 2.671875 5.3632812 C 2.503875 5.3752812 2.3620469 5.3864375 2.2480469 5.3984375 L 2.2480469 8.0546875 L 3.0957031 8.0546875 C 3.3777031 8.0546875 3.6444844 8.0415781 3.8964844 8.0175781 C 4.1484844 7.9875781 4.3667344 7.9278906 4.5527344 7.8378906 C 4.7387344 7.7418906 4.8861406 7.6075938 4.9941406 7.4335938 C 5.1021406 7.2595938 5.15625 7.0226562 5.15625 6.7226562 C 5.15625 6.4466563 5.1021406 6.2171094 4.9941406 6.0371094 C 4.8861406 5.8571094 4.7443125 5.7172344 4.5703125 5.6152344 C 4.3963125 5.5072344 4.19675 5.4344375 3.96875 5.3984375 C 3.74675 5.3564375 3.5153906 5.3359375 3.2753906 5.3359375 z M 7.1015625 6.4433594 L 7.6855469 6.4433594 L 7.6855469 8.8632812 C 7.6855469 9.1932813 7.7098125 9.4731719 7.7578125 9.7011719 C 7.8058125 9.9291721 7.8841875 10.115766 7.9921875 10.259766 C 8.1001875 10.397766 8.23825 10.498453 8.40625 10.564453 C 8.58025 10.624453 8.7911094 10.654297 9.0371094 10.654297 C 9.3131094 10.654297 9.5518594 10.639375 9.7558594 10.609375 C 9.959859 10.579375 10.088578 10.553297 10.142578 10.529297 L 10.142578 6.4433594 L 10.728516 6.4433594 L 10.728516 10.933594 C 10.554516 10.981594 10.321344 11.035703 10.027344 11.095703 C 9.7333441 11.155703 9.3732656 11.185547 8.9472656 11.185547 C 8.5992656 11.185547 8.3082188 11.135203 8.0742188 11.033203 C 7.8402187 10.931203 7.6498594 10.787563 7.5058594 10.601562 C 7.3618594 10.415563 7.2574062 10.189781 7.1914062 9.9257812 C 7.1314063 9.6617812 7.1015625 9.3707344 7.1015625 9.0527344 L 7.1015625 6.4433594 z M 13.064453 8.7539062 C 13.489553 8.7539062 13.810897 8.9047781 14.029297 9.2050781 C 14.251597 9.5014781 14.363281 9.9168718 14.363281 10.451172 C 14.363281 11.266272 14.167344 11.879569 13.777344 12.292969 C 13.387344 12.702469 12.819112 12.908203 12.070312 12.908203 L 12.058594 12.591797 C 12.315994 12.591797 12.551125 12.562406 12.765625 12.503906 C 12.980125 12.445406 13.166266 12.355275 13.322266 12.234375 C 13.482166 12.109575 13.611484 11.952819 13.708984 11.761719 C 13.810384 11.566719 13.877009 11.331594 13.912109 11.058594 C 13.806809 11.113194 13.681403 11.162178 13.533203 11.205078 C 13.385003 11.244078 13.226294 11.263672 13.058594 11.263672 C 12.840194 11.263672 12.654053 11.230363 12.501953 11.164062 C 12.349853 11.093863 12.228366 11.001772 12.134766 10.888672 C 12.041166 10.775572 11.972588 10.646247 11.929688 10.498047 C 11.886787 10.349847 11.865234 10.195056 11.865234 10.035156 C 11.865234 9.8869562 11.888747 9.7360844 11.935547 9.5839844 C 11.982347 9.4318844 12.054844 9.2966812 12.152344 9.1757812 C 12.253744 9.0509812 12.377191 8.9490938 12.525391 8.8710938 C 12.677491 8.7930937 12.857753 8.7539062 13.064453 8.7539062 z M 13.070312 9.0878906 C 12.926012 9.0878906 12.802572 9.1153219 12.701172 9.1699219 C 12.599772 9.2206219 12.519431 9.2892 12.457031 9.375 C 12.394631 9.4608 12.347606 9.5587751 12.316406 9.671875 C 12.289106 9.784975 12.275391 9.9025374 12.275391 10.023438 C 12.275391 10.331537 12.343969 10.560784 12.480469 10.708984 C 12.620869 10.857184 12.82465 10.929687 13.09375 10.929688 C 13.27315 10.929688 13.4299 10.910094 13.5625 10.871094 C 13.699 10.828194 13.824406 10.781163 13.941406 10.726562 C 13.945273 10.679763 13.947266 10.634697 13.947266 10.591797 C 13.951199 10.548897 13.953125 10.499913 13.953125 10.445312 C 13.953125 10.262013 13.939409 10.087628 13.912109 9.9238281 C 13.888709 9.7600281 13.841684 9.6169874 13.771484 9.4921875 C 13.705184 9.3673875 13.617006 9.2694188 13.503906 9.1992188 C 13.390806 9.1251188 13.245813 9.0878906 13.070312 9.0878906 z "
     id="path4" />
</svg>

<svg xmlns="http://www.w3.org/2000/svg" viewBox="0 0 16 16">
 <path d="m 1.6 0 c -0.886 0 -1.6 0.713 -1.6 1.6 l 0 12.801 c 0 0.886 0.713 1.6 1.6 1.6 l 12.801 0 c 0.886 0 1.6 -0.713 1.6 -1.6 l 0 -12.801 c 0 -0.886 -0.713 -1.6 -1.6 -1.6 l -12.801 0 z m 1.604 4.805 c 0.858 0 1.504 0.162 1.936 0.486 c 0.438 0.324 0.656 0.803 0.656 1.439 c 0 0.468 -0.123 0.837 -0.369 1.107 c -0.246 0.27 -0.571 0.466 -0.973 0.586 c 0.096 0.12 0.219 0.28 0.369 0.484 c 0.156 0.204 0.315 0.43 0.477 0.676 c 0.162 0.24 0.323 0.492 0.479 0.756 c 0.156 0.264 0.287 0.516 0.395 0.756 l -0.656 0 c -0.126 -0.24 -0.264 -0.479 -0.414 -0.719 c -0.144 -0.24 -0.293 -0.471 -0.449 -0.693 c -0.15 -0.228 -0.297 -0.439 -0.441 -0.631 l -0.379 -0.504 c -0.192 0.018 -0.384 0.027 -0.576 0.027 l -1.01 0 l 0 2.52 l -0.611 0 l 0 -6.119 c 0.216 -0.06 0.468 -0.103 0.756 -0.127 c 0.294 -0.03 0.565 -0.045 0.811 -0.045 z m 0.072 0.531 c -0.228 0 -0.43 0.009 -0.604 0.027 c -0.168 0.012 -0.31 0.023 -0.424 0.035 l 0 2.656 l 0.848 0 c 0.282 0 0.549 -0.013 0.801 -0.037 c 0.252 -0.03 0.47 -0.09 0.656 -0.18 c 0.186 -0.096 0.333 -0.23 0.441 -0.404 c 0.108 -0.174 0.162 -0.411 0.162 -0.711 c 0 -0.276 -0.054 -0.506 -0.162 -0.686 c -0.108 -0.18 -0.25 -0.32 -0.424 -0.422 c -0.174 -0.108 -0.374 -0.181 -0.602 -0.217 c -0.222 -0.042 -0.453 -0.063 -0.693 -0.063 z m 3.826 1.107 l 0.584 0 l 0 2.42 c 0 0.33 0.024 0.61 0.072 0.838 c 0.048 0.228 0.126 0.415 0.234 0.559 c 0.108 0.138 0.246 0.239 0.414 0.305 c 0.174 0.06 0.385 0.09 0.631 0.09 c 0.276 0 0.515 -0.015 0.719 -0.045 c 0.204 -0.03 0.333 -0.056 0.387 -0.08 l 0 -4.086 l 0.586 0 l 0 4.49 c -0.174 0.048 -0.407 0.102 -0.701 0.162 c -0.294 0.06 -0.654 0.09 -1.08 0.09 c -0.348 0 -0.639 -0.05 -0.873 -0.152 c -0.234 -0.102 -0.424 -0.246 -0.568 -0.432 c -0.144 -0.186 -0.248 -0.412 -0.314 -0.676 c -0.06 -0.264 -0.09 -0.555 -0.09 -0.873 l 0 -2.609 z m 5.963 2.311 c 0.425 0 0.746 0.151 0.965 0.451 c 0.222 0.296 0.334 0.712 0.334 1.246 c 0 0.815 -0.196 1.428 -0.586 1.842 c -0.39 0.41 -0.958 0.615 -1.707 0.615 l -0.012 -0.316 c 0.257 0 0.493 -0.029 0.707 -0.088 c 0.214 -0.059 0.401 -0.149 0.557 -0.27 c 0.16 -0.125 0.289 -0.282 0.387 -0.473 c 0.101 -0.195 0.168 -0.43 0.203 -0.703 c -0.105 0.055 -0.231 0.104 -0.379 0.146 c -0.148 0.039 -0.307 0.059 -0.475 0.059 c -0.218 0 -0.405 -0.033 -0.557 -0.1 c -0.152 -0.07 -0.274 -0.162 -0.367 -0.275 c -0.094 -0.113 -0.162 -0.242 -0.205 -0.391 c -0.043 -0.148 -0.064 -0.303 -0.064 -0.463 c 0 -0.148 0.024 -0.299 0.07 -0.451 c 0.047 -0.152 0.119 -0.287 0.217 -0.408 c 0.101 -0.125 0.225 -0.227 0.373 -0.305 c 0.152 -0.078 0.332 -0.117 0.539 -0.117 z m 0.006 0.334 c -0.144 0 -0.268 0.027 -0.369 0.082 c -0.101 0.051 -0.182 0.119 -0.244 0.205 c -0.062 0.086 -0.109 0.184 -0.141 0.297 c -0.027 0.113 -0.041 0.231 -0.041 0.352 c 0 0.308 0.069 0.537 0.205 0.686 c 0.14 0.148 0.344 0.221 0.613 0.221 c 0.179 0 0.336 -0.02 0.469 -0.059 c 0.136 -0.043 0.262 -0.09 0.379 -0.145 c 0.004 -0.047 0.006 -0.092 0.006 -0.135 c 0.004 -0.043 0.006 -0.092 0.006 -0.146 c 0 -0.183 -0.014 -0.358 -0.041 -0.521 c -0.023 -0.164 -0.07 -0.307 -0.141 -0.432 c -0.066 -0.125 -0.154 -0.223 -0.268 -0.293 c -0.113 -0.074 -0.258 -0.111 -0.434 -0.111 z" style="fill:#ececec;fill-opacity:1"/>
</svg>
